X: 11141
T: CARY OWEN
%R: jig
B: "Edinburgh Repository of Music" v.1 p.114 #1
F: http://digital.nls.uk/special-collections-of-printed-music/pageturner.cfm?id=87776133
Z: 2015 John Chambers <jc:trillian.mit.edu>
M: 6/8
L: 1/8
%%slurgraces
%%graceslurs
K: G
g/f/ |\
edc BAG | B>cB B2g/f/ | edc BAG | ABA A2g/f/ |\
edc BAG | BcB B2d | def g2B | ABA A2 :|
|: c |\
(B/c/d)B (B/c/d)B | B/c/dB d2g | c/d/ec c/d/ec | (c/d/e)c e2f |\
g2a b2a | {a}g2e {e}d2B | def g2B | ABA A2 :|

%%sep 2 1 500
%%sep 1 1 500

